X:1
T:Title
%%score { 1 | ( 2 3 ) }
L:1/8
M:4/4
K:G
V:1 treble nm="Grand Piano"
V:2 treble 
V:3 treble 
V:1
 z4 z2[Q:1/4=92] G>A | B>B B>c B2 B>A | [EG]>[EA] [EG]>[G,CE] [G,B,D]2 [B,DG]>[CGA] | %3
 [DGB]2 [DGd]2 [FA]2 [FA][GB] | [FA]2 [Fd]2 d2 G>A | B>B B>c B2 B>A | %6
[M:9/8] [CEG]>[EGc][EGc]- [EGc]/[EGc]/ [EGc]2- [EGc][Ge][Ge] |[M:4/4] [Gd]3 [EGc] [DGB]2 .[CFA]2 | %8
[M:3/4] [B,DG]6 |[M:1/4] (3[B,G][FA][D=FB] |[M:4/4] [CEc]>[Ec] [Ec]>[Ec] [Ec]2 (3[CE][EG][^DA] | %11
 [DB]>[DB] [DB]>[DB] [DB]2 [DGB]>[DAc] | [DGB]2 [DGd]2 [FA]2 [FA]>[GB] | [FA]2 [Fd]2 d2 G>A | %14
 B>B B>c B2 B>A |[M:9/8] [CEG][Ec][Ec] [Ec] [Ec]2- [Ec][Ge][Ge] |[M:4/4] [Gd]3 [Gd] [Fd]2 [Fd]2 | %17
[M:2/4] G4 |] %18
V:2
 z4 z2 [G,B,D]>[G,CG] | [G,DG]>[G,DG] [G,DG]>[G,EG] [G,DG]2 [G,DG]>[G,CG] | %2
 [C,C]>[C,C] [C,C]>C, G,,2 G,>G, | G,2 B,,2 [D,D]2 [D,D][D,D] | %4
 [D,D]2 [D,A,]2[K:treble] [G,B,G]2 [G,B,D]>[G,CG] | %5
 [G,DG]>[G,DG] [G,DG]>[G,EG] [G,DG]2 [G,DG]>[G,CG] | %6
[M:9/8][K:bass] C,>C,C,- C,/C,/ C,2- C,[C,C][^C,_B,] |[M:4/4] [D,B,]3 D, D,2 z D |[M:3/4] G,,6 | %9
[M:1/4] (3G,-[G,C]G, |[M:4/4] C,>[C,G,] [C,G,]>[C,G,] [C,G,]2 (3:2:2[C,G,]2 [C,G,] | %11
 [G,,G,]>[G,,G,] [B,,G,]>[D,G,] G,2 G,>G, | G,2 B,,2 [D,D]2 [D,D]>[D,D] | %13
 [D,D]2 [D,A,]2[K:treble] [G,B,G]2 [G,B,D]>[G,CG] | %14
 [G,DG]>[G,DG] [G,DG]>[G,EG] [G,DG]2 [G,DG]>[G,CG] | %15
[M:9/8][K:bass] C,C,C, C, C,2- C,[C,C][^C,_B,] |[M:4/4] [D,B,]3 [D,B,] [D,C]2 [D,C]2 | %17
[M:2/4] [G,B,]4 |] %18
V:3
 x8 | x8 | x8 | x8 | x4[K:treble] x4 | x8 |[M:9/8][K:bass] x9 |[M:4/4] z4 z2 D,2 |[M:3/4] x6 | %9
[M:1/4] x2 |[M:4/4] x8 | x8 | x8 | x4[K:treble] x4 | x8 |[M:9/8][K:bass] x9 |[M:4/4] x8 | %17
[M:2/4] x4 |] %18

